packages/bezier-icons/icons/center-focus.svg

<svg width="24" height="24" viewBox="0 0 24 24" fill="none" xmlns="http://www.w3.org/2000/svg">
<path fill-rule="evenodd" clip-rule="evenodd" d="M21.0002 10.0001H19.0002V5.00009H14.0002V3.00009H19.5002C20.3272 3.00009 21.0002 3.67309 21.0002 4.50009V10.0001ZM19.5002 21.0001H14.0002V19.0001H19.0002V14.0001H21.0002V19.5001C21.0002 20.3271 20.3272 21.0001 19.5002 21.0001ZM4.50018 21.0001H10.0002V19.0001H5.00018V14.0001H3.00018V19.5001C3.00018 20.3271 3.67318 21.0001 4.50018 21.0001ZM5.00018 10.0001H3.00018V4.50009C3.00018 3.67309 3.67318 3.00009 4.50018 3.00009H10.0002V5.00009H5.00018V10.0001ZM12 16C14.2091 16 16 14.2091 16 12C16 9.79086 14.2091 8 12 8C9.79086 8 8 9.79086 8 12C8 14.2091 9.79086 16 12 16Z" fill="#313234"/>
</svg>

<svg xmlns="http://www.w3.org/2000/svg" width="24" height="24" fill="none" viewBox="0 0 24 24"><path fill="#313234" fill-rule="evenodd" d="M21 10h-2V5h-5V3h5.5c.827 0 1.5.673 1.5 1.5zm-1.5 11H14v-2h5v-5h2v5.5c0 .827-.673 1.5-1.5 1.5m-15 0H10v-2H5v-5H3v5.5c0 .827.673 1.5 1.5 1.5M5 10H3V4.5C3 3.673 3.673 3 4.5 3H10v2H5zm7 6a4 4 0 1 0 0-8 4 4 0 0 0 0 8" clip-rule="evenodd"/></svg>
